svg/home-sec2-3.svg

<svg width="170" height="279" viewBox="0 0 170 279" fill="none" xmlns="http://www.w3.org/2000/svg">
<path d="M5 274.5C24.7191 273.033 44.2311 273.042 63.9444 272.444C74.9165 272.112 85.7673 269.76 96.7778 270.722C105.436 271.479 113.89 273.552 122.444 274.944C129.096 276.027 135.889 274.776 142.5 276C148.164 277.049 154.232 276.5 160 276.5C161.348 276.5 163.146 276.815 164.444 276.444C165.885 276.033 165 266.894 165 265.556C165 237.812 159.031 208.406 168 181.5" stroke="#4D4D4D" stroke-width="3" stroke-linecap="round"/>
<path d="M6 274.5C1.9105 266.832 4 254.963 4 246.556C4 238.87 4 231.185 4 223.5C4 219.586 3 215.844 3 212C3 209.843 3 204.454 3 209.5" stroke="#4D4D4D" stroke-width="3" stroke-linecap="round"/>
<path d="M20 208.5C33.7037 207.035 47.9554 206.149 61.3333 202.5C69.8375 200.181 78.3676 197.246 87 195.5C94.7461 193.933 102.734 193.335 110.556 192.278C115.547 191.603 120.489 189.641 125.556 189.5C130.388 189.366 137.541 188.26 142 186.278C144.496 185.168 152.732 184.5 150 184.5" stroke="#4D4D4D" stroke-width="3" stroke-linecap="round"/>
<path d="M2 241.5C8.86396 241.881 14.7144 243.351 20.7778 238.5C25.9703 234.346 28.4184 224.203 34.5 221.5C46.1562 216.319 40.2914 235.5 49 235.5C56.3026 235.5 62.0509 222.559 67.2222 218.722C73.1948 214.291 80.1326 212.5 87.5 212.5C90.4428 212.5 87.4902 240.838 98 236.333C103.743 233.872 102.457 217.008 104.556 211.611C106.322 207.068 109.801 206.501 113.778 205.278C116.841 204.335 119.928 205.091 123 204.278C126.601 203.325 129.116 201.613 133 203C136.364 204.201 140.12 202.606 143.444 203.556C146.146 204.327 146.159 207.5 150 207.5C152.344 207.5 155.213 207.953 157.5 207.444C159.109 207.087 162.456 202.956 162 202.5" stroke="#4D4D4D" stroke-width="3" stroke-linecap="round"/>
<path d="M44 251.5C63.6999 251.5 83.3155 251.887 102.944 250C115.348 248.807 127.546 248.5 140 248.5C143.046 248.5 148.115 248.56 151 247.278C153.233 246.285 158.532 244.383 155 243.5" stroke="#4D4D4D" stroke-width="3" stroke-linecap="round"/>
<path d="M102 231.5C117.951 231.5 133.721 231.824 149.333 228.056C152.016 227.408 154.738 226.5 157.5 226.5C158.697 226.5 162.165 226.5 159 226.5" stroke="#4D4D4D" stroke-width="3" stroke-linecap="round"/>
<path d="M70 233.5C76.7456 233.5 83.4478 232.5 90 232.5" stroke="#4D4D4D" stroke-width="3" stroke-linecap="round"/>
<path d="M153 245.5C156.069 244.778 158.884 244.5 162 244.5" stroke="#4D4D4D" stroke-width="3" stroke-linecap="round"/>
<path d="M168 180.75C165.888 179.121 164.034 177.213 161.889 175.583C158.229 172.803 155.249 169.289 151.778 166.292C148.967 163.864 145.363 162.505 142.264 160.5C139.816 158.916 137.35 157.517 134.75 156.194C130.197 153.878 126.008 150.867 121.403 148.639C120.45 148.178 119.352 147.297 118.361 147.014C117.676 146.818 116.488 146.714 116.25 146" stroke="#4D4D4D" stroke-width="3" stroke-linecap="round"/>
<path d="M117.25 146.5C115.364 146.5 113.402 146.329 111.556 146.75C109.023 147.327 106.813 149.199 104.528 150.361C100.089 152.618 95.5725 154.684 91.1111 156.889C81.5791 161.6 71.9255 166.072 62.7639 171.486C54.2176 176.536 46.1571 182.238 37.75 187.5C32.2404 190.948 26.6867 194.331 21.1944 197.806C17.8926 199.894 14.9432 202.769 11.3611 204.375C10.7206 204.662 4.58148 208.913 4 207.75" stroke="#4D4D4D" stroke-width="3" stroke-linecap="round"/>
<path d="M19.25 208.75C13.507 209.431 7.7542 211.75 2 211.75" stroke="#4D4D4D" stroke-width="3" stroke-linecap="round"/>
<path d="M76.75 90.25C77.2193 93.1207 77.5944 96.0111 77.7361 98.9167C77.8391 101.028 77.7193 103.337 78.3056 105.389C78.7395 106.908 79.5168 108.508 81 109.25C82.4259 109.963 83.9819 110.073 85.5139 110.389C87.4307 110.784 89.3886 111.391 91.25 112C92.3973 112.375 93.6227 112.472 94.75 112.875C95.2002 113.036 96.1032 113.25 95 113.25" stroke="#4D4D4D" stroke-width="3" stroke-linecap="round"/>
<path d="M100 111.5C100.933 111.445 101.912 110.425 102.556 109.806C103.329 109.061 104.44 108.698 105.125 107.861C106.191 106.558 107.354 105.872 107.25 104C107.219 103.45 106.32 102.432 105.944 102.056C104.695 100.806 103.431 99.6545 102.5 98.1249C101.721 96.8448 100.814 96.0016 99.8611 94.8749C98.8378 93.6656 98.1596 92.2369 97.25 90.9444C96.412 89.7536 94.771 88.1668 93.625 87.2499C93.3471 87.0276 93.241 86.4261 93 86.1249C92.6776 85.722 91.7279 85.7499 91.25 85.7499C90.0123 85.7499 88.5738 85.5434 87.3611 85.7638C86.584 85.9051 85.8855 86.3171 85.125 86.4861C84.774 86.5641 83.6355 86.7499 83.75 86.7499" stroke="#4D4D4D" stroke-width="3" stroke-linecap="round"/>
<path d="M82.2469 86.9722C83.1927 85.1333 84.2469 83.7801 84.2469 81.6111C84.2469 80.4116 84.818 78.9495 84.4414 77.7778C83.9279 76.1804 82.0813 74 80.2469 74C78.9841 74 77.9438 76.3036 77.4969 77.2222C76.8154 78.6231 76.8954 80.4176 77.3719 81.8472C77.7779 83.065 78.6761 84.5498 79.9969 84.9167C80.639 85.095 82.7523 84.983 82.9969 85.4722" stroke="#4D4D4D" stroke-width="3" stroke-linecap="round"/>
<path d="M83.25 104.75C85.492 102.071 87.0473 100.589 90.3611 99.9861C91.5286 99.7738 91.608 99.871 92.3889 100.875C93.4655 102.259 93.5563 105.331 93 107" stroke="#4D4D4D" stroke-width="3" stroke-linecap="round"/>
<path d="M90.25 100C91.8962 99.5158 93.4025 98.4743 95.1111 97.9861C96.4624 97.6 96.1711 98.6709 97.25 99.3056C98.9323 100.295 99.25 103.762 99.25 105.5" stroke="#4D4D4D" stroke-width="3" stroke-linecap="round"/>
<path d="M90 87C89.5179 90.3273 89.1438 93.2351 88.2597 96.336C87.9202 97.5268 88.0111 98.7317 88.0111 100" stroke="#4D4D4D" stroke-width="3" stroke-linecap="round"/>
<path d="M93.0001 107.5C91.9811 110.227 90.8955 112.912 89.8613 115.639C89.0897 117.673 87.9861 119.751 87.514 121.875C87.2764 122.944 89.2865 124.142 90.0001 124.556C90.3045 124.732 91.5001 126.201 91.5001 126" stroke="#4D4D4D" stroke-width="3" stroke-linecap="round"/>
<path d="M95.0539 119C94.5739 120.02 97.4348 122.881 98.3039 123.75" stroke="#4D4D4D" stroke-width="3" stroke-linecap="round"/>
<path d="M76 90.5C76 98.2571 73 105.658 73 113.444C73 114.355 74.2795 116.212 75.3056 116.25C77.623 116.336 79.4524 115.774 81.5 114.75" stroke="#4D4D4D" stroke-width="3" stroke-linecap="round"/>
<path d="M79.0042 29C79.018 36.1691 78.9068 43.365 79.3097 50.5278C79.3703 51.6053 79.5042 52.6702 79.5042 53.75" stroke="#4D4D4D" stroke-width="3" stroke-linecap="round"/>
<path d="M63 2C64.0267 20.917 65.1134 39.8082 65.5 58.75" stroke="#4D4D4D" stroke-width="3" stroke-linecap="round"/>
<path d="M76.3127 80.25C75.9922 77.9663 75.9402 75.7138 76.0974 73.4132C76.2365 71.3767 76.3752 69.3696 76.3752 67.3264C76.3752 65.9318 76.6252 64.5755 76.6252 63.1875" stroke="#4D4D4D" stroke-width="3" stroke-linecap="round"/>
<path d="M79.5 73.75C79.6894 71.0036 79.8167 68.2318 80.1736 65.5C80.3054 64.4917 80.5992 63.3213 80.375 62.3125" stroke="#4D4D4D" stroke-width="3" stroke-linecap="round"/>
<path d="M82.8125 74.75C83.4534 71.6116 83.6479 68.3801 84.0625 65.2014C84.1449 64.5693 84.2986 63.9648 84.4062 63.3402C84.4393 63.1487 84.5521 62.7968 84.375 63.0625" stroke="#4D4D4D" stroke-width="3" stroke-linecap="round"/>
<path d="M89 71C89.5956 55.383 90.1501 39.7296 90.4198 24.0539C90.5464 16.6938 91 9.36217 91 2" stroke="#4D4D4D" stroke-width="3" stroke-linecap="round"/>
<path d="M99.25 13C99.198 18.9855 98.7958 24.9908 98.1944 30.9444C97.9145 33.7157 97.5 36.3993 97.5 39.1944C97.5 40.6315 97.3021 42.0372 97.25 43.4444C97.2359 43.8245 97.2968 45.9373 97 44.75" stroke="#4D4D4D" stroke-width="3" stroke-linecap="round"/>
</svg>

<svg xmlns="http://www.w3.org/2000/svg" width="170" height="279" fill="none"><path stroke="#4D4D4D" stroke-linecap="round" stroke-width="3" d="M5 274.5c19.72-1.467 39.231-1.458 58.944-2.056 10.972-.332 21.823-2.684 32.834-1.722 8.658.757 17.112 2.83 25.666 4.222 6.652 1.083 13.445-.168 20.056 1.056 5.664 1.049 11.732.5 17.5.5 1.348 0 3.146.315 4.444-.056 1.441-.411.556-9.55.556-10.888 0-27.744-5.969-57.15 3-84.056"/><path stroke="#4D4D4D" stroke-linecap="round" stroke-width="3" d="M6 274.5c-4.09-7.668-2-19.537-2-27.944V223.5c0-3.914-1-7.656-1-11.5v-2.5m17-1c13.704-1.465 27.955-2.351 41.333-6 8.505-2.319 17.035-5.254 25.667-7 7.746-1.567 15.734-2.165 23.556-3.222 4.991-.675 9.933-2.637 15-2.778 4.832-.134 11.985-1.24 16.444-3.222 2.496-1.11 10.732-1.778 8-1.778"/><path stroke="#4D4D4D" stroke-linecap="round" stroke-width="3" d="M2 241.5c6.864.381 12.714 1.851 18.778-3 5.192-4.154 7.64-14.297 13.722-17 11.656-5.181 5.791 14 14.5 14 7.303 0 13.05-12.941 18.222-16.778 5.973-4.431 12.91-6.222 20.278-6.222 2.943 0-.01 28.338 10.5 23.833 5.743-2.461 4.457-19.325 6.556-24.722 1.766-4.543 5.245-5.11 9.222-6.333 3.063-.943 6.15-.187 9.222-1 3.601-.953 6.116-2.665 10-1.278 3.364 1.201 7.12-.394 10.444.556 2.702.771 2.715 3.944 6.556 3.944 2.344 0 5.213.453 7.5-.056 1.609-.357 4.956-4.488 4.5-4.944m-118 49c19.7 0 39.316.387 58.944-1.5 12.404-1.193 24.602-1.5 37.056-1.5 3.046 0 8.115.06 11-1.222 2.233-.993 7.532-2.895 4-3.778"/><path stroke="#4D4D4D" stroke-linecap="round" stroke-width="3" d="M102 231.5c15.951 0 31.721.324 47.333-3.444 2.683-.648 5.405-1.556 8.167-1.556h1.5m-89 7c6.746 0 13.448-1 20-1m63 13c3.069-.722 5.884-1 9-1m6-63.75c-2.112-1.629-3.966-3.537-6.111-5.167-3.66-2.78-6.64-6.294-10.111-9.291-2.811-2.428-6.415-3.787-9.514-5.792a82.833 82.833 0 0 0-7.514-4.306c-4.553-2.316-8.742-5.327-13.347-7.555-.953-.461-2.051-1.342-3.042-1.625-.685-.196-1.873-.3-2.111-1.014"/><path stroke="#4D4D4D" stroke-linecap="round" stroke-width="3" d="M117.25 146.5c-1.886 0-3.848-.171-5.694.25-2.533.577-4.743 2.449-7.028 3.611-4.439 2.257-8.956 4.323-13.417 6.528-9.532 4.711-19.186 9.183-28.347 14.597-8.546 5.05-16.607 10.752-25.014 16.014-5.51 3.448-11.063 6.831-16.556 10.306-3.301 2.088-6.25 4.963-9.833 6.569-.64.287-6.78 4.538-7.361 3.375m15.25 1c-5.743.681-11.496 3-17.25 3m74.75-121.5c.47 2.87.844 5.761.986 8.667.103 2.111-.017 4.42.57 6.472.434 1.519 1.21 3.119 2.694 3.861 1.426.713 2.982.823 4.514 1.139 1.917.395 3.875 1.002 5.736 1.611 1.147.375 2.373.472 3.5.875.45.161 1.353.375.25.375m5-1.75c.933-.055 1.912-1.075 2.556-1.694.773-.745 1.884-1.108 2.569-1.945 1.066-1.303 2.229-1.989 2.125-3.861-.031-.55-.93-1.568-1.306-1.944-1.249-1.25-2.513-2.401-3.444-3.931-.779-1.28-1.686-2.123-2.639-3.25-1.023-1.21-1.701-2.638-2.611-3.93-.838-1.191-2.479-2.778-3.625-3.695-.278-.222-.384-.824-.625-1.125-.322-.403-1.272-.375-1.75-.375-1.238 0-2.676-.207-3.889.014-.777.141-1.476.553-2.236.722-.351.078-1.49.264-1.375.264m-1.503.222c.946-1.839 2-3.192 2-5.36 0-1.2.571-2.662.194-3.834C83.928 76.18 82.081 74 80.247 74c-1.263 0-2.303 2.304-2.75 3.222-.682 1.401-.602 3.196-.125 4.625.406 1.218 1.304 2.703 2.625 3.07.642.178 2.755.066 3 .555"/><path stroke="#4D4D4D" stroke-linecap="round" stroke-width="3" d="M83.25 104.75c2.242-2.679 3.797-4.161 7.111-4.764 1.168-.212 1.247-.115 2.028.889 1.077 1.384 1.167 4.456.611 6.125"/><path stroke="#4D4D4D" stroke-linecap="round" stroke-width="3" d="M90.25 100c1.646-.484 3.153-1.526 4.861-2.014 1.351-.386 1.06.685 2.139 1.32 1.682.989 2 4.456 2 6.194M90 87c-.482 3.327-.856 6.235-1.74 9.336-.34 1.19-.249 2.396-.249 3.664M93 107.5c-1.019 2.727-2.105 5.412-3.139 8.139-.771 2.034-1.875 4.112-2.347 6.236-.238 1.069 1.773 2.267 2.486 2.681.305.176 1.5 1.645 1.5 1.444m3.554-7c-.48 1.02 2.38 3.881 3.25 4.75M76 90.5c0 7.757-3 15.158-3 22.944 0 .911 1.28 2.768 2.306 2.806 2.317.086 4.146-.476 6.194-1.5M79.004 29c.014 7.17-.097 14.365.306 21.528.06 1.077.194 2.142.194 3.222M63 2c1.027 18.917 2.113 37.808 2.5 56.75m10.813 21.5c-.32-2.284-.373-4.536-.216-6.837.14-2.036.278-4.043.278-6.087 0-1.394.25-2.75.25-4.138M79.5 73.75c.19-2.746.317-5.518.674-8.25.131-1.008.425-2.179.201-3.188m2.438 12.438c.64-3.138.835-6.37 1.25-9.549.082-.632.236-1.236.343-1.86.033-.192.146-.544-.031-.279M89 71c.596-15.617 1.15-31.27 1.42-46.946C90.546 16.694 91 9.362 91 2m8.25 11c-.052 5.985-.454 11.99-1.056 17.944-.28 2.772-.694 5.455-.694 8.25 0 1.438-.198 2.843-.25 4.25-.014.38.047 2.493-.25 1.306"/></svg>
